Numix-GalliumOS/22/mimetypes/encrypted.svg

<?xml version="1.0" encoding="UTF-8" standalone="no"?>
<svg
   xmlns:dc="http://purl.org/dc/elements/1.1/"
   xmlns:cc="http://creativecommons.org/ns#"
   xmlns:rdf="http://www.w3.org/1999/02/22-rdf-syntax-ns#"
   xmlns:svg="http://www.w3.org/2000/svg"
   xmlns="http://www.w3.org/2000/svg"
   xmlns:sodipodi="http://sodipodi.sourceforge.net/DTD/sodipodi-0.dtd"
   xmlns:inkscape="http://www.inkscape.org/namespaces/inkscape"
   width="22"
   viewBox="0 0 22 22"
   height="22"
   id="svg2"
   version="1.1"
   inkscape:version="0.48.5 r10040"
   sodipodi:docname="encrypted.svg">
  <metadata
     id="metadata16">
    <rdf:RDF>
      <cc:Work
         rdf:about="">
        <dc:format>image/svg+xml</dc:format>
        <dc:type
           rdf:resource="http://purl.org/dc/dcmitype/StillImage" />
      </cc:Work>
    </rdf:RDF>
  </metadata>
  <defs
     id="defs14">
    <clipPath
       id="clipPath-897244418">
      <g
         transform="translate(0,-1004.3622)"
         id="g17">
        <path
           style="fill:#1890d0"
           inkscape:connector-curvature="0"
           d="m -24,13 c 0,1.105 -0.672,2 -1.5,2 -0.828,0 -1.5,-0.895 -1.5,-2 0,-1.105 0.672,-2 1.5,-2 0.828,0 1.5,0.895 1.5,2 z"
           transform="matrix(15.333333,0,0,11.5,414.99999,878.8622)"
           id="path19" />
      </g>
    </clipPath>
  </defs>
  <sodipodi:namedview
     pagecolor="#ffffff"
     bordercolor="#666666"
     borderopacity="1"
     objecttolerance="10"
     gridtolerance="10"
     guidetolerance="10"
     inkscape:pageopacity="0"
     inkscape:pageshadow="2"
     inkscape:window-width="1280"
     inkscape:window-height="970"
     id="namedview12"
     showgrid="true"
     inkscape:zoom="17.5"
     inkscape:cx="1.9576932"
     inkscape:cy="11.447433"
     inkscape:window-x="0"
     inkscape:window-y="0"
     inkscape:window-maximized="1"
     inkscape:current-layer="svg2">
    <inkscape:grid
       type="xygrid"
       id="grid2993"
       empspacing="5"
       visible="true"
       enabled="true"
       snapvisiblegridlinesonly="true" />
  </sodipodi:namedview>
  <path
     style="fill:#dcdcdc"
     d="M 4,0 C 3.527343,0 3,0.527344 3,1 l 0,20 c 0,0.445312 0.554687,1 1,1 l 14,0 c 0.445313,0 0.992367,-0.554753 1,-1 L 19,6 13,0 z"
     id="path4"
     inkscape:connector-curvature="0"
     sodipodi:nodetypes="ssssssccs" />
  <path
     style="fill:#000000;fill-opacity:0.19599998"
     d="m 14,6 5,5 0,-5 z"
     id="path6"
     inkscape:connector-curvature="0"
     sodipodi:nodetypes="cccc" />
  <path
     style="fill:#ffffff;fill-opacity:0.39200003"
     d="m 13,0 6,6 -5,0 C 13.554688,6 13,5.445312 13,5 z"
     id="path8"
     inkscape:connector-curvature="0"
     sodipodi:nodetypes="ccssc" />
  <path
     style="color:#000000;fill:#888888;fill-opacity:1"
     inkscape:connector-curvature="0"
     id="path30"
     d="m 11.000007,8 c 0,0 2.996948,0.061681 2.999993,2.272716 L 14,12 c 0,0 1.000002,0.0439 1,0.545433 l -1.4e-5,4.65907 C 14.999942,17.625229 14.591633,17.999954 14.142844,18 L 7.8571386,18 C 7.4083544,17.999954 7.0000419,17.625229 7,17.204503 l 1.42e-5,-4.65907 C 7.0000156,12.043891 8,12 8,12 L 8,10.279072 C 8.0233244,8.0654011 11.000012,8 11.000007,8 z M 11,9.273744 C 11,9.273744 9,9.40474 9,11 l 0,1 4,0 0,-1 C 13,9.339781 10.999999,9.273744 11,9.273744 z"
     sodipodi:nodetypes="cccsccccsccccsccsc" />
</svg>

<svg xmlns="http://www.w3.org/2000/svg" viewBox="0 0 22 22">
 <defs>
  
 </defs>
 <path d="m 4 0 c -0.473 0 -1 0.527 -1 1 l 0 20 c 0 0.445 0.555 1 1 1 l 14 0 c 0.445 0 0.992 -0.555 1 -1 l 0 -15 -6 -6 z" style="fill:#dcdcdc"/>
 <path d="m 14 6 5 5 0 -5 z" style="fill:#000;fill-opacity:0.196"/>
 <path d="m 13 0 6 6 -5 0 c -0.445 0 -1 -0.555 -1 -1 z" style="fill:#fff;fill-opacity:0.392"/>
 <path d="m 11 8 c 0 0 2.997 0.062 3 2.273 l 0 1.727 c 0 0 1 0.044 1 0.545 l 0 4.659 c 0 0.421 -0.408 0.795 -0.857 0.795 l -6.286 0 c -0.449 0 -0.857 -0.375 -0.857 -0.795 l 0 -4.659 c 0 -0.502 1 -0.545 1 -0.545 l 0 -1.721 c 0.023 -2.214 3 -2.279 3 -2.279 z m 0 1.274 c 0 0 -2 0.131 -2 1.726 l 0 1 4 0 0 -1 c 0 -1.66 -2 -1.726 -2 -1.726 z" style="fill:#888;fill-opacity:1;color:#000"/>
</svg>
